!!!ONB: MCCC : IJB0065_02 : Extracted Monophonic Melody
!!!COM: Bach, Johann Sebastian
!!!OPR: Cello Suite No.3
!!!OMV: 2
!!!SCT: BWV 1009
!!!ODT: 1717///
**kern
*thru
*staff1
*IP1
*clefF4
*k[]
*C:
*M4/4
16G
16A
16B
=1
16c
32B
32A
16G
16F
16E
32G
32F
16E
16D
16C
32GG
32FF
16EE
16DD
16CC
16C
16D
16E
=2
16F
32E
32D
16E
16G
16D
32C
32BB
16C
16G
8BB
16AA
16GG
32G
32F
32E
32F
16G
16E
=3
16AA
16G
16c
16E
32F
32E
32D
32E
16F
16D
16GG
16F
16B
16D
32E
32D
32C
32D
16E
16C
=4
32FF
32AA
32BB
32C
16D
16F
16E
16C
16GG
16BB
8C
8CC
32E
32D
32C
32BB
16C
16E
=5
16F#
16A
16d
16F#
16G
16BB
16AA
16GG
8.A
32D
32E
32F#
32G
32A
32B
16c
16A
=6
16B
32D
32C
16D
16E
16F
16AA
16BB
16F
16E
16CC
16F#
16CC
16G
16CC
16A
16CC
=7
16B
16GG
16c
16GG
16d
16GG
16e
16GG
32f#
32c
32D
32c
16f#
16c
32B
32d
32e
32f#
16g
16B
=8
16A
16g
16f#
16D
32G
32B
32c
32d
16e
16G
16F#
16e
16d
16BB
32E
32G
32A
32B
16c
16E
=9
16D
16c
16B
16GG
32C
32BB
16C
16E
16BB
16C
32F#
32E
16F#
32C
32BB
16C
32G
32F#
16G
32C
32BB
=10
16C
32A
32G
16A
16C
32BB
32D
32E
32F#
16G
16d
16c
32F#
32E
16F#
16AA
32GG
32BB
32C
32D
16E
16B
=11
16A
32D
32C
16D
16FF#
32EE
32GG
32AA
32BB
16C
16G
32F#
32A
32B
32c
16d
16C
16BB
16G
16DD
16F#
=12
16G
32B
32c
16d
32G
32A
16B
16G
16D
16F#
[4G
16G]
16G
16A
16B
=13
16c
32B
32A
16G
16F
16E
32G
32F
16E
16D
16C
32GG
32FF
16EE
16DD
16CC
16C
16D
16E
=14
16F
32E
32D
16E
16G
16D
32C
32BB
16C
16G
8BB
16AA
16GG
32G
32F
32E
32F
16G
16E
=15
16AA
16G
16c
16E
32F
32E
32D
32E
16F
16D
16GG
16F
16B
16D
32E
32D
32C
32D
16E
16C
=16
32FF
32AA
32BB
32C
16D
16F
16E
16C
16GG
16BB
8C
8CC
32E
32D
32C
32BB
16C
16E
=17
16F#
16A
16d
16F#
16G
16BB
16AA
16GG
8.A
32D
32E
32F#
32G
32A
32B
16c
16A
=18
16B
32D
32C
16D
16E
16F
16AA
16BB
16F
16E
16CC
16F#
16CC
16G
16CC
16A
16CC
=19
16B
16GG
16c
16GG
16d
16GG
16e
16GG
32f#
32c
32D
32c
16f#
16c
32B
32d
32e
32f#
16g
16B
=20
16A
16g
16f#
16D
32G
32B
32c
32d
16e
16G
16F#
16e
16d
16BB
32E
32G
32A
32B
16c
16E
=21
16D
16c
16B
16GG
32C
32BB
16C
16E
16BB
16C
32F#
32E
16F#
32C
32BB
16C
32G
32F#
16G
32C
32BB
=22
16C
32A
32G
16A
16C
32BB
32D
32E
32F#
16G
16d
16c
32F#
32E
16F#
16AA
32GG
32BB
32C
32D
16E
16B
=23
16A
32D
32C
16D
16FF#
32EE
32GG
32AA
32BB
16C
16G
32F#
32A
32B
32c
16d
16C
16BB
16G
16DD
16F#
=24
16G
32B
32c
16d
32G
32A
16B
16G
16D
16F#
[4G
16G]
16d
16e
16f#
=25
16g
32f#
32e
16d
16c
16B
32d
32c
16B
16A
16G
32D
32C
16BB
16AA
16GG
16B
16c
16d
=26
32e
32d
32c
32B
16c
16A
16F
32D
32E
16F
16B
16G#
16F#
16E
16D
32C
32BB
32C
32D
16E
16C
=27
16FF
16AA
16C
16E
32D
32C
32D
32E
16F
16D
16G#
16D
16EE
16B
32c
32B
32A
32B
16c
16A
=28
32F
32E
32D
32E
16F
16D
32BB
32AA
32GG#
32AA
16BB
16D
8.EE
32E
32F#
32G#
32A
32B
32c
16d
16B
=29
32c
32B
32A
32G#
16A
16C
16D
16B
16E
16G#
8.A
32c
32d
16e
32A
32B
16c
32E
32F
=30
16G
32B-
32A
16B-
16C
16EE
16B-
16A
16G
16A
32F
32E
16F
16A
32C#
32D
32E
32F
16G
16AA
=31
16DD
32D
32E
16F
32F
32G
16A
32B
32c
16d
16c
32B
32F
32GG
32F
16B
16F
32E
32G
32A
32B
16c
16E
=32
16D
16c
16B
16GG
32C
32E
32F
32G
16A
16C
16BB
16A
16G
16EE
32AA
32C
32D
32E
16F
16AA
=33
16GG
16F
16E
16CC
16FF
32A
32G
16F
32F
32E
16D
32c
32B
16c
32B
32A
16G
32F
32E
16D
16B
=34
8c
32AA
32B-
32A
32G
32F
32E
16F
16A
16E
16F
32B
32A
16B
32F
32E
16F
32c
32B
16c
32F
32E
=35
16F
32d
32c
16d
16F
32E
32D
32C
32D
16E
16G
16c
32B
32A
16G
16F
16E
16C
16GG
16BB
=36
16CC
32c
32B
16c
32G
32F
16G
32E
32D
16E
16C
[4c
16c]
16d
16e
16f#
=37
16g
32f#
32e
16d
16c
16B
32d
32c
16B
16A
16G
32D
32C
16BB
16AA
16GG
16B
16c
16d
=38
32e
32d
32c
32B
16c
16A
16F
32D
32E
16F
16B
16G#
16F#
16E
16D
32C
32BB
32C
32D
16E
16C
=39
16FF
16AA
16C
16E
32D
32C
32D
32E
16F
16D
16G#
16D
16EE
16B
32c
32B
32A
32B
16c
16A
=40
32F
32E
32D
32E
16F
16D
32BB
32AA
32GG#
32AA
16BB
16D
8.EE
32E
32F#
32G#
32A
32B
32c
16d
16B
=41
32c
32B
32A
32G#
16A
16C
16D
16B
16E
16G#
8.A
32c
32d
16e
32A
32B
16c
32E
32F
=42
16G
32B-
32A
16B-
16C
16EE
16B-
16A
16G
16A
32F
32E
16F
16A
32C#
32D
32E
32F
16G
16AA
=43
16DD
32D
32E
16F
32F
32G
16A
32B
32c
16d
16c
32B
32F
32GG
32F
16B
16F
32E
32G
32A
32B
16c
16E
=44
16D
16c
16B
16GG
32C
32E
32F
32G
16A
16C
16BB
16A
16G
16EE
32AA
32C
32D
32E
16F
16AA
=45
16GG
16F
16E
16CC
16FF
32A
32G
16F
32F
32E
16D
32c
32B
16c
32B
32A
16G
32F
32E
16D
16B
=46
8c
32AA
32B-
32A
32G
32F
32E
16F
16A
16E
16F
32B
32A
16B
32F
32E
16F
32c
32B
16c
32F
32E
=47
16F
32d
32c
16d
16F
32E
32D
32C
32D
16E
16G
16c
32B
32A
16G
16F
16E
16C
16GG
16BB
=48
16CC
32c
32B
16c
32G
32F
16G
32E
32D
16E
16C
4c
==
*-
